img/icon_phone_pink.svg

<svg width="30" height="30" viewBox="0 0 30 30" fill="none" xmlns="http://www.w3.org/2000/svg">
<path fill-rule="evenodd" clip-rule="evenodd" d="M15 0C6.71573 0 0 6.71573 0 15C0 23.2843 6.71573 30 15 30C23.2843 30 30 23.2843 30 15C30 6.71573 23.2843 0 15 0ZM10.4923 7.5C10.5367 7.5352 10.5719 7.5352 10.6071 7.53061C10.7893 7.5153 10.9454 7.55969 11.0464 7.72653C11.0643 7.75543 11.0821 7.78433 11.0999 7.81324C11.3088 8.15174 11.518 8.49086 11.7169 8.83778C11.8608 9.08857 11.9981 9.34344 12.1356 9.59856C12.2364 9.78564 12.3372 9.97287 12.4408 10.1587C12.481 10.234 12.5311 10.305 12.5812 10.376C12.6095 10.416 12.6378 10.4561 12.6643 10.497C12.7282 10.5986 12.7894 10.7031 12.8491 10.805L12.8587 10.8215C12.9873 11.0649 12.9812 11.3098 12.7898 11.5041C12.5884 11.7101 12.372 11.9051 12.1559 12.0998C12.0797 12.1685 12.0035 12.2372 11.9281 12.3062C11.8343 12.3923 11.7391 12.477 11.644 12.5616C11.4938 12.6952 11.3438 12.8288 11.1995 12.9674C11.0158 13.145 10.9684 13.3669 11.0924 13.6011C11.1038 13.6226 11.1153 13.6441 11.1268 13.6656C11.3065 14.0022 11.4861 14.3385 11.6832 14.668C12.4607 15.9644 13.4541 17.0665 14.7093 17.916C15.1929 18.2451 15.6965 18.5466 16.2047 18.8344C16.6838 19.1053 16.8705 19.0594 17.2425 18.6446C17.4389 18.4264 17.6314 18.2062 17.8242 17.9858C17.9708 17.8181 18.1176 17.6502 18.2665 17.4828C18.3491 17.3895 18.4486 17.3068 18.545 17.2272C18.741 17.0619 18.9552 17.0435 19.1802 17.1568C19.1943 17.1637 19.2087 17.1704 19.2231 17.1771C19.2726 17.2004 19.3227 17.2239 19.3655 17.2548C19.7646 17.5403 20.1952 17.7697 20.6253 17.9988C20.8384 18.1124 21.0514 18.2259 21.2604 18.3461C21.4758 18.4699 21.6876 18.5993 21.8987 18.7284C22.0191 18.8019 22.1393 18.8754 22.2599 18.9476C22.439 19.0533 22.5109 19.2078 22.4987 19.4206C22.465 20.0191 22.3655 20.6069 22.018 21.112C21.8726 21.3217 21.666 21.5053 21.4578 21.6538C20.8808 22.0579 20.2364 22.3074 19.5507 22.4605C18.9277 22.5997 18.3063 22.5492 17.7093 22.3625C16.5567 22.0074 15.421 21.6002 14.3756 20.9834C13.4266 20.4216 12.5633 19.7436 11.7643 18.9859C10.7526 18.0231 9.84948 16.9731 9.11936 15.7777C8.64333 15.0017 8.30353 14.1659 7.99587 13.3134C7.80914 12.7991 7.62546 12.2894 7.54281 11.7445C7.44791 11.1276 7.51372 10.5337 7.71118 9.94902C7.88873 9.42095 8.11067 8.91584 8.44588 8.4643C8.70915 8.11378 9.03824 7.85664 9.46376 7.74184C9.70418 7.67823 9.94613 7.62373 10.188 7.56925C10.2895 7.54639 10.391 7.52353 10.4923 7.5Z" fill="#FD848D"/>
</svg>

<svg width="30" height="30" fill="none" xmlns="http://www.w3.org/2000/svg"><path fill-rule="evenodd" clip-rule="evenodd" d="M15 0C6.716 0 0 6.716 0 15c0 8.284 6.716 15 15 15 8.284 0 15-6.716 15-15 0-8.284-6.716-15-15-15zm-4.508 7.5c.045.035.08.035.115.03.182-.015.338.03.44.197l.053.086c.209.339.418.678.617 1.025.144.25.281.505.419.76.1.188.201.375.305.56.04.076.09.147.14.218.029.04.057.08.083.121.064.102.125.206.185.308l.01.017c.128.243.122.488-.07.682-.2.206-.417.401-.633.596l-.228.206-.284.256c-.15.133-.3.267-.444.405-.184.178-.232.4-.108.634l.035.065c.18.336.36.672.556 1.002.778 1.296 1.771 2.399 3.026 3.248.484.33.988.63 1.496.918.479.271.666.225 1.038-.19.196-.218.388-.438.581-.658l.442-.503c.083-.093.183-.176.279-.256a.539.539 0 01.635-.07l.043.02c.05.023.1.047.143.078.399.285.83.515 1.26.744.212.113.425.227.634.347.216.124.428.253.639.382l.36.22c.18.105.252.26.24.473-.034.598-.133 1.186-.481 1.691-.145.21-.352.393-.56.542-.577.404-1.222.653-1.907.806a3.53 3.53 0 01-1.842-.098c-1.152-.355-2.288-.762-3.333-1.379a14.649 14.649 0 01-2.612-1.997c-1.011-.963-1.915-2.013-2.645-3.208-.476-.776-.815-1.612-1.123-2.465-.187-.514-.37-1.024-.453-1.569A3.741 3.741 0 017.71 9.95c.178-.528.4-1.033.735-1.485.263-.35.592-.607 1.018-.722.24-.064.482-.118.724-.173.101-.023.203-.045.304-.069z" fill="#FD848D"/></svg>
